fs/document_pdf_20_filled.svg

<svg viewBox="0 0 20 20" fill="none" xmlns="http://www.w3.org/2000/svg" height="1em" width="1em">
  <path d="M6.50049 11C6.22435 11 6.00049 11.2239 6.00049 11.5V13.5C6.00049 13.7761 6.22435 14 6.50049 14C6.77663 14 7.00049 13.7761 7.00049 13.5V13.3336H7.33369C7.97809 13.3336 8.50049 12.8112 8.50049 12.1668C8.50049 11.5224 7.97809 11 7.33369 11H6.50049ZM7.33369 12.3336H7.00049V12H7.33369C7.42581 12 7.50049 12.0747 7.50049 12.1668C7.50049 12.2589 7.42581 12.3336 7.33369 12.3336ZM12.0012 11.4994C12.0015 11.2235 12.2253 11 12.5012 11H13.4995C13.7757 11 13.9995 11.2239 13.9995 11.5C13.9995 11.7761 13.7757 12 13.4995 12H13.0006L13.0001 12.3345H13.4995C13.7757 12.3345 13.9995 12.5583 13.9995 12.8345C13.9995 13.1106 13.7757 13.3345 13.4995 13.3345H13.0008L13.0012 13.4987C13.0019 13.7749 12.7786 13.9993 12.5025 14C12.2263 14.0007 12.0019 13.7774 12.0012 13.5013L11.9995 12.8339L12.0012 11.4994ZM9.49902 11C9.22288 11 8.99902 11.2239 8.99902 11.5V13.5C8.99902 13.7761 9.22288 14 9.49902 14H10.0005C10.8289 14 11.5005 13.3284 11.5005 12.5C11.5005 11.6716 10.8289 11 10.0005 11H9.49902ZM9.99902 13V12H10.0005C10.2766 12 10.5005 12.2239 10.5005 12.5C10.5005 12.7761 10.2766 13 10.0005 13H9.99902ZM10.0005 6.5V2H5.50049C4.67206 2 4.00049 2.67157 4.00049 3.5V9.08172C3.41866 9.28805 3.00195 9.84329 3.00195 10.4958V14.499C3.00195 15.1516 3.41866 15.7068 4.00049 15.9132V16.5C4.00049 17.3284 4.67206 18 5.50049 18H14.5005C15.3289 18 16.0005 17.3284 16.0005 16.5V15.9133C16.5825 15.707 16.9993 15.1517 16.9993 14.499V10.4958C16.9993 9.84319 16.5825 9.28789 16.0005 9.08163V8H11.5005C10.6721 8 10.0005 7.32843 10.0005 6.5ZM4.50195 9.99585H15.4993C15.7754 9.99585 15.9993 10.2197 15.9993 10.4958V14.499C15.9993 14.7752 15.7754 14.999 15.4993 14.999H4.50195C4.22581 14.999 4.00195 14.7752 4.00195 14.499V10.4958C4.00195 10.2197 4.22581 9.99585 4.50195 9.99585ZM11.0005 6.5V2.25L15.7505 7H11.5005C11.2243 7 11.0005 6.77614 11.0005 6.5Z" fill="#212121"/>
</svg>

<svg viewBox="0 0 20 20" fill="none" xmlns="http://www.w3.org/2000/svg" height="1em" width="1em">
  <path d="M6.5 11a.5.5 0 0 0-.5.5v2a.5.5 0 0 0 1 0v-.166h.334a1.167 1.167 0 0 0 0-2.334H6.5Zm.834 1.334H7V12h.334a.167.167 0 0 1 0 .334ZM12 11.499a.5.5 0 0 1 .5-.499h.998a.5.5 0 1 1 0 1H13v.335h.498a.5.5 0 1 1 0 1H13v.164a.5.5 0 1 1-1 .002v-.667l.002-1.335ZM9.5 11a.5.5 0 0 0-.5.5v2a.5.5 0 0 0 .5.5h.502a1.5 1.5 0 0 0 0-3H9.5Zm.5 2v-1h.002a.5.5 0 0 1 0 1H10Zm.002-6.5V2H5.5A1.5 1.5 0 0 0 4 3.5v5.582a1.5 1.5 0 0 0-1 1.414v4.003a1.5 1.5 0 0 0 1 1.414v.587A1.5 1.5 0 0 0 5.5 18h9a1.5 1.5 0 0 0 1.5-1.5v-.587a1.5 1.5 0 0 0 .998-1.414v-4.003A1.5 1.5 0 0 0 16 9.082V8h-4.5A1.5 1.5 0 0 1 10 6.5Zm-5.5 3.496h10.997a.5.5 0 0 1 .5.5v4.003a.5.5 0 0 1-.5.5H4.502a.5.5 0 0 1-.5-.5v-4.003a.5.5 0 0 1 .5-.5ZM11 6.5V2.25L15.75 7H11.5a.5.5 0 0 1-.5-.5Z" fill="#212121"/>
</svg>
